svgs/light/vault.svg

<svg xmlns="http://www.w3.org/2000/svg" viewBox="0 0 576 512"><!--! Font Awesome Pro 6.4.0 by @fontawesome - https://fontawesome.com License - https://fontawesome.com/license (Commercial License) Copyright 2023 Fonticons, Inc. --><path d="M64 32C46.3 32 32 46.3 32 64V416c0 17.7 14.3 32 32 32H512c17.7 0 32-14.3 32-32V64c0-17.7-14.3-32-32-32H64zM0 64C0 28.7 28.7 0 64 0H512c35.3 0 64 28.7 64 64V416c0 35.3-28.7 64-64 64v16c0 8.8-7.2 16-16 16s-16-7.2-16-16V480H96v16c0 8.8-7.2 16-16 16s-16-7.2-16-16l0-16c-35.3 0-64-28.7-64-64V64zM352 240A128 128 0 1 0 96 240a128 128 0 1 0 256 0zM64 240a160 160 0 1 1 320 0A160 160 0 1 1 64 240zm160 32a32 32 0 1 0 0-64 32 32 0 1 0 0 64zm0-96a64 64 0 1 1 0 128 64 64 0 1 1 0-128zm256 0a16 16 0 1 0 -32 0 16 16 0 1 0 32 0zm32 0c0 20.9-13.4 38.7-32 45.3V336c0 8.8-7.2 16-16 16s-16-7.2-16-16V221.3c-18.6-6.6-32-24.4-32-45.3c0-26.5 21.5-48 48-48s48 21.5 48 48z"/></svg>

<svg xmlns="http://www.w3.org/2000/svg" viewBox="0 0 576 512"><!--! Font Awesome Pro 6.3.0 by @fontawesome - https://fontawesome.com License - https://fontawesome.com/license (Commercial License) Copyright 2023 Fonticons, Inc. --><path d="M160 240C160 204.7 188.7 176 224 176C259.3 176 288 204.7 288 240C288 275.3 259.3 304 224 304C188.7 304 160 275.3 160 240zM224 272C241.7 272 256 257.7 256 240C256 222.3 241.7 208 224 208C206.3 208 192 222.3 192 240C192 257.7 206.3 272 224 272zM384 240C384 328.4 312.4 400 224 400C135.6 400 64 328.4 64 240C64 151.6 135.6 80 224 80C312.4 80 384 151.6 384 240zM224 112C153.3 112 96 169.3 96 240C96 310.7 153.3 368 224 368C294.7 368 352 310.7 352 240C352 169.3 294.7 112 224 112zM512 176C512 196.9 498.6 214.7 480 221.3V336C480 344.8 472.8 352 464 352C455.2 352 448 344.8 448 336V221.3C429.4 214.7 416 196.9 416 176C416 149.5 437.5 128 464 128C490.5 128 512 149.5 512 176zM464 160C455.2 160 448 167.2 448 176C448 184.8 455.2 192 464 192C472.8 192 480 184.8 480 176C480 167.2 472.8 160 464 160zM0 64C0 28.65 28.65 0 64 0H512C547.3 0 576 28.65 576 64V416C576 451.3 547.3 480 512 480V496C512 504.8 504.8 512 496 512C487.2 512 480 504.8 480 496V480H96V496C96 504.8 88.84 512 80 512C71.16 512 64 504.8 64 496V480C28.65 480 0 451.3 0 416V64zM32 64V416C32 433.7 46.33 448 64 448H512C529.7 448 544 433.7 544 416V64C544 46.33 529.7 32 512 32H64C46.33 32 32 46.33 32 64z"/></svg>
